X: 181697
T: River Meadow
S: B.Breathnach:"Ceol Rince na hEireann" IV/84 (gan ainm)
Z: B.Black
L: 1/8
M: 2/4
Q: 280
R: polka
K: D
A/G/|FA FD|GB BA|FA FD|FE EG|
FA FD|GB BA|Bd AG|FD D :|
e|fd dB|Ad de|fd ag|fe eg|
fd dc|Bd dB|AB BG|FD D :|
